Sweet-Rainbow/icons/mpv.svg

<?xml version="1.0" encoding="UTF-8" standalone="no"?>
<!-- Generator: Gravit.io -->

<svg
   xmlns:dc="http://purl.org/dc/elements/1.1/"
   xmlns:cc="http://creativecommons.org/ns#"
   xmlns:rdf="http://www.w3.org/1999/02/22-rdf-syntax-ns#"
   xmlns:svg="http://www.w3.org/2000/svg"
   xmlns="http://www.w3.org/2000/svg"
   xmlns:sodipodi="http://sodipodi.sourceforge.net/DTD/sodipodi-0.dtd"
   xmlns:inkscape="http://www.inkscape.org/namespaces/inkscape"
   style="isolation:isolate"
   viewBox="0 0 36 36"
   width="48"
   height="48"
   version="1.1"
   id="svg9"
   sodipodi:docname="mpv.svg"
   inkscape:version="0.92.4 (5da689c313, 2019-01-14)">
  <metadata
     id="metadata15">
    <rdf:RDF>
      <cc:Work
         rdf:about="">
        <dc:format>image/svg+xml</dc:format>
        <dc:type
           rdf:resource="http://purl.org/dc/dcmitype/StillImage" />
        <dc:title></dc:title>
      </cc:Work>
    </rdf:RDF>
  </metadata>
  <defs
     id="defs13" />
  <sodipodi:namedview
     pagecolor="#ffffff"
     bordercolor="#666666"
     borderopacity="1"
     objecttolerance="10"
     gridtolerance="10"
     guidetolerance="10"
     inkscape:pageopacity="0"
     inkscape:pageshadow="2"
     inkscape:window-width="640"
     inkscape:window-height="480"
     id="namedview11"
     showgrid="false"
     inkscape:zoom="29.365243"
     inkscape:cx="25.325443"
     inkscape:cy="32"
     inkscape:current-layer="svg9"
     units="px" />
  <linearGradient
     id="_lgradient_12"
     x1="0"
     y1="0.5"
     x2="1"
     y2="0.5"
     gradientTransform="scale(48)"
     gradientUnits="userSpaceOnUse">
    <stop
       offset="0%"
       stop-opacity="1"
       style="stop-color:rgb(71,118,230)"
       id="stop2" />
    <stop
       offset="98.26086956521739%"
       stop-opacity="1"
       style="stop-color:rgb(142,84,233)"
       id="stop4" />
  </linearGradient>
  <g
     id="g826"
     transform="scale(0.75)">
    <path
       id="path7"
       d="m 30.22,4.99 v 0 c 1.049,0.342 2.178,-0.231 2.52,-1.28 v 0 C 33.082,2.661 32.509,1.532 31.46,1.19 v 0 C 29.06,0.4 26.55,0 24.03,0 15.68,0 7.9,4.34 3.54,11.46 1.23,15.22 0,19.56 0,23.97 0,32.32 4.34,40.1 11.46,44.46 15.22,46.77 19.55,48 23.97,48 32.32,48 40.1,43.66 44.46,36.54 46.77,32.78 48,28.45 48,24.03 48,18.39 46.02,12.92 42.41,8.59 v 0 C 41.698,7.746 40.432,7.634 39.585,8.34 v 0 c -0.847,0.706 -0.957,1.97 -0.245,2.82 v 0 C 42.35,14.77 44,19.32 44,24.03 44,27.7 42.98,31.31 41.05,34.45 37.41,40.38 30.93,44 23.97,44 20.29,44 16.69,42.98 13.55,41.05 7.62,37.41 4,30.93 4,23.97 4,20.3 5.02,16.69 6.95,13.55 10.59,7.62 17.07,4 24.03,4 c 2.1,0 4.19,0.33 6.19,0.99 z m -9.719,29.703 v 0 c -0.59,-0.192 -1.225,0.13 -1.417,0.72 v 0 c -0.193,0.59 0.13,1.225 0.72,1.418 v 0 c 1.35,0.444 2.762,0.669 4.179,0.669 4.697,0 9.073,-2.441 11.526,-6.446 1.299,-2.115 1.991,-4.556 1.991,-7.037 0,-4.697 -2.441,-9.073 -6.446,-11.526 -2.115,-1.299 -4.551,-1.991 -7.037,-1.991 -4.697,0 -9.073,2.441 -11.526,6.446 -1.299,2.115 -1.991,4.551 -1.991,7.037 0,3.173 1.114,6.25 3.144,8.685 v 0 c 0.401,0.475 1.113,0.538 1.589,0.141 v 0 c 0.477,-0.398 0.539,-1.108 0.138,-1.586 v 0 c -1.693,-2.031 -2.621,-4.59 -2.621,-7.24 0,-2.064 0.574,-4.095 1.659,-5.861 2.048,-3.336 5.693,-5.372 9.608,-5.372 2.07,0 4.095,0.574 5.861,1.659 3.336,2.048 5.372,5.693 5.372,9.608 0,2.064 -0.574,4.095 -1.659,5.861 -2.048,3.336 -5.693,5.372 -9.608,5.372 -1.181,0 -2.357,-0.186 -3.482,-0.557 z m 10.459,-9.948 -5.078,2.902 -5.078,2.902 C 20.084,30.96 19.5,30.621 19.5,29.792 V 24 18.208 c 0,-0.829 0.584,-1.168 1.304,-0.757 l 5.078,2.902 5.078,2.902 c 0.72,0.411 0.72,1.079 0,1.49 z"
       inkscape:connector-curvature="0"
       style="fill:url(#_lgradient_12);fill-rule:evenodd" />
  </g>
</svg>

<?xml version="1.0" encoding="UTF-8" standalone="no"?><!-- Generator: Gravit.io --><svg xmlns="http://www.w3.org/2000/svg" xmlns:xlink="http://www.w3.org/1999/xlink" style="isolation:isolate" viewBox="0 0 48 48" width="48pt" height="48pt"><linearGradient id="_lgradient_12" x1="0" y1="0.5" x2="1" y2="0.5" gradientTransform="matrix(48,0,0,48,0,0)" gradientUnits="userSpaceOnUse"><stop offset="0%" stop-opacity="1" style="stop-color:rgb(71,118,230)"/><stop offset="98.26086956521739%" stop-opacity="1" style="stop-color:rgb(142,84,233)"/></linearGradient><path d=" M 30.22 4.99 L 30.22 4.99 C 31.269 5.332 32.398 4.759 32.74 3.71 L 32.74 3.71 C 33.082 2.661 32.509 1.532 31.46 1.19 L 31.46 1.19 C 29.06 0.4 26.55 0 24.03 0 C 15.68 0 7.9 4.34 3.54 11.46 C 1.23 15.22 0 19.56 0 23.97 C 0 32.32 4.34 40.1 11.46 44.46 C 15.22 46.77 19.55 48 23.97 48 C 32.32 48 40.1 43.66 44.46 36.54 C 46.77 32.78 48 28.45 48 24.03 C 48 18.39 46.02 12.92 42.41 8.59 L 42.41 8.59 C 41.698 7.746 40.432 7.634 39.585 8.34 L 39.585 8.34 C 38.738 9.046 38.628 10.31 39.34 11.16 L 39.34 11.16 C 42.35 14.77 44 19.32 44 24.03 C 44 27.7 42.98 31.31 41.05 34.45 C 37.41 40.38 30.93 44 23.97 44 C 20.29 44 16.69 42.98 13.55 41.05 C 7.62 37.41 4 30.93 4 23.97 C 4 20.3 5.02 16.69 6.95 13.55 C 10.59 7.62 17.07 4 24.03 4 C 26.13 4 28.22 4.33 30.22 4.99 L 30.22 4.99 Z  M 20.501 34.693 L 20.501 34.693 C 19.911 34.501 19.276 34.823 19.084 35.413 L 19.084 35.413 C 18.891 36.003 19.214 36.638 19.804 36.831 L 19.804 36.831 C 21.154 37.275 22.566 37.5 23.983 37.5 C 28.68 37.5 33.056 35.059 35.509 31.054 C 36.808 28.939 37.5 26.498 37.5 24.017 C 37.5 19.32 35.059 14.944 31.054 12.491 C 28.939 11.192 26.503 10.5 24.017 10.5 C 19.32 10.5 14.944 12.941 12.491 16.946 C 11.192 19.061 10.5 21.497 10.5 23.983 C 10.5 27.156 11.614 30.233 13.644 32.668 L 13.644 32.668 C 14.045 33.143 14.757 33.206 15.233 32.809 L 15.233 32.809 C 15.71 32.411 15.772 31.701 15.371 31.223 L 15.371 31.223 C 13.678 29.192 12.75 26.633 12.75 23.983 C 12.75 21.919 13.324 19.888 14.409 18.122 C 16.457 14.786 20.102 12.75 24.017 12.75 C 26.087 12.75 28.112 13.324 29.878 14.409 C 33.214 16.457 35.25 20.102 35.25 24.017 C 35.25 26.081 34.676 28.112 33.591 29.878 C 31.543 33.214 27.898 35.25 23.983 35.25 C 22.802 35.25 21.626 35.064 20.501 34.693 L 20.501 34.693 Z  M 30.96 24.745 L 25.882 27.647 L 20.804 30.549 C 20.084 30.96 19.5 30.621 19.5 29.792 L 19.5 24 L 19.5 18.208 C 19.5 17.379 20.084 17.04 20.804 17.451 L 25.882 20.353 L 30.96 23.255 C 31.68 23.666 31.68 24.334 30.96 24.745 Z " fill-rule="evenodd" fill="url(#_lgradient_12)"/></svg>
